cog-off.svg

<svg fill="currentColor" viewBox="0 0 24 24"><path d="M22.12 21.46 2.4 1.73 1.12 3 4 5.87 2.34 8.73c-.13.22-.07.49.12.64L4.57 11c-.04.34-.07.67-.07 1s.03.65.07.97l-2.11 1.66c-.19.15-.25.42-.12.64l2 3.46c.12.22.39.3.61.22l2.49-1.01c.52.4 1.06.74 1.69.99l.37 2.65c.04.24.25.42.5.42h4c.25 0 .46-.18.5-.42l.37-2.65c.51-.21.96-.48 1.39-.79l4.59 4.59zM12 15.5c-1.93 0-3.5-1.57-3.5-3.5 0-.5.12-.92.29-1.33l4.54 4.54c-.41.18-.83.29-1.33.29m-.26-6.97L8.56 5.35c.19-.1.37-.2.57-.28l.37-2.65c.04-.24.25-.42.5-.42h4c.25 0 .46.18.5.42l.37 2.65c.63.25 1.17.59 1.69.98l2.49-1c.22-.09.49 0 .61.22l2 3.46c.12.22.07.49-.12.64L19.43 11c.04.34.07.67.07 1s-.03.65-.07.97l2.11 1.66c.19.15.24.42.12.64l-1.16 2.02-5.03-5.03c.03-.08.03-.17.03-.26 0-1.93-1.57-3.5-3.5-3.5-.09 0-.17 0-.26.03"/></svg>

<svg  viewBox="0 0 24 24" fill="currentColor"><path  d="M22.12 21.46L2.4 1.73L1.12 3L4 5.87L2.34 8.73C2.21 8.95 2.27 9.22 2.46 9.37L4.57 11C4.53 11.34 4.5 11.67 4.5 12S4.53 12.65 4.57 12.97L2.46 14.63C2.27 14.78 2.21 15.05 2.34 15.27L4.34 18.73C4.46 18.95 4.73 19.03 4.95 18.95L7.44 17.94C7.96 18.34 8.5 18.68 9.13 18.93L9.5 21.58C9.54 21.82 9.75 22 10 22H14C14.25 22 14.46 21.82 14.5 21.58L14.87 18.93C15.38 18.72 15.83 18.45 16.26 18.14L20.85 22.73L22.12 21.46M12 15.5C10.07 15.5 8.5 13.93 8.5 12C8.5 11.5 8.62 11.08 8.79 10.67L13.33 15.21C12.92 15.39 12.5 15.5 12 15.5M11.74 8.53L8.56 5.35C8.75 5.25 8.93 5.15 9.13 5.07L9.5 2.42C9.54 2.18 9.75 2 10 2H14C14.25 2 14.46 2.18 14.5 2.42L14.87 5.07C15.5 5.32 16.04 5.66 16.56 6.05L19.05 5.05C19.27 4.96 19.54 5.05 19.66 5.27L21.66 8.73C21.78 8.95 21.73 9.22 21.54 9.37L19.43 11C19.47 11.34 19.5 11.67 19.5 12S19.47 12.65 19.43 12.97L21.54 14.63C21.73 14.78 21.78 15.05 21.66 15.27L20.5 17.29L15.47 12.26C15.5 12.18 15.5 12.09 15.5 12C15.5 10.07 13.93 8.5 12 8.5C11.91 8.5 11.83 8.5 11.74 8.53Z"/></svg>
